; generated by Slic3r Prusa Edition 1.41.3+win64 on 2019-09-28 at 06:21:04

; 

; external perimeters extrusion width = 0.45mm
; perimeters extrusion width = 0.45mm
; infill extrusion width = 0.45mm
; solid infill extrusion width = 0.45mm
; top infill extrusion width = 0.40mm
; first layer extrusion width = 0.42mm

M73 P0 R399
M201 X9000 Y9000 Z500 E10000 ; sets maximum accelerations, mm/sec^2
M203 X500 Y500 Z12 E120 ; sets maximum feedrates, mm/sec
M204 P2000 R1500 T2000 ; sets acceleration (P, T) and retract acceleration (R), mm/sec^2
M205 X10.00 Y10.00 Z0.20 E2.50 ; sets the jerk limits, mm/sec
M205 S0 T0 ; sets the minimum extruding and travel feed rate, mm/sec
M107
M115 U3.2.3 ; tell printer latest fw version
M83  ; extruder relative mode
M204 S2000 T1500 ; MK2 firmware only supports the old M204 format
M104 S215 ; set extruder temp
M140 S55 ; set bed temp
M190 S55 ; wait for bed temp
M109 S215 ; wait for extruder temp
G28 W ; home all without mesh bed level
G80 ; mesh bed leveling
G1 Y-3.0 F1000.0 ; go outside print area
G92 E0.0
G1 X60.0 E9.0  F1000.0 ; intro line
M73 P0 R399
G1 X100.0 E12.5  F1000.0 ; intro line
G92 E0.0
M900 K30 ; Filament gcode
G21 ; set units to millimeters
G90 ; use absolute coordinates
M83 ; use relative distances for extrusion
;BEFORE_LAYER_CHANGE
G92 E0.0
;0.2


G1 E-0.80000 F2100.00000
G1 Z0.600 F10800.000
;AFTER_LAYER_CHANGE
;0.2
G1 X18.796 Y31.411
G1 Z0.200
G1 E0.80000 F2100.00000
M204 S1000
G1 F1200
G1 X19.444 Y31.311 E0.02055
G1 X230.554 Y31.311 E6.61919
G1 X231.384 Y31.476 E0.02653
G1 X232.092 Y31.947 E0.02664
G1 X232.566 Y32.647 E0.02653
G1 X232.738 Y33.480 E0.02664
G1 X232.738 Y176.515 E4.48477
G1 X232.672 Y177.035 E0.01646
G1 X232.483 Y177.525 E0.01646
G1 X232.184 Y177.956 E0.01646
G1 X231.790 Y178.304 E0.01646
G1 X231.204 Y178.589 E0.02044
G1 X230.556 Y178.689 E0.02055
G1 X19.443 Y178.689 E6.61931
G1 X18.918 Y178.623 E0.01658
G1 X18.428 Y178.435 E0.01646
G1 X17.996 Y178.136 E0.01646
G1 X17.646 Y177.740 E0.01658
G1 X17.361 Y177.154 E0.02044
G1 X17.261 Y176.506 E0.02055
G1 X17.261 Y33.493 E4.48408
G1 X17.327 Y32.968 E0.01658
G1 X17.515 Y32.478 E0.01646
G1 X17.814 Y32.046 E0.01646
G1 X18.210 Y31.696 E0.01658
G1 X18.742 Y31.438 E0.01855
; PURGING FINISHED
G1 F8640
G1 X19.444 Y31.311 E-0.16462
G1 X22.023 Y31.311 E-0.59538
G1 E-0.04000 F2100.00000
G1 Z0.800 F10800.000
G1 X173.688 Y62.163
G1 Z0.200
G1 E0.80000 F2100.00000
G1 F1200
G1 X184.862 Y62.163 E0.35036
G1 X184.862 Y73.337 E0.35036
G1 X173.688 Y73.337 E0.35036
G1 X173.688 Y62.223 E0.34848
G1 X174.065 Y62.540 F10800.000
G1 F1200
G1 X184.485 Y62.540 E0.32671
G1 X184.485 Y72.960 E0.32671
G1 X174.065 Y72.960 E0.32671
G1 X174.065 Y62.600 E0.32483
G1 X173.961 Y62.154 F10800.000
G1 F8640
G1 X177.356 Y62.581 E-0.76000
G1 E-0.04000 F2100.00000
G1 Z0.800 F10800.000
G1 X128.587 Y34.087
G1 Z0.200
G1 E0.80000 F2100.00000
G1 F1200
G1 X229.963 Y34.087 E3.17857
G1 X229.963 Y101.413 E2.11095
G1 X128.587 Y101.413 E3.17857
G1 X128.587 Y34.147 E2.10907
M73 P0 R398
G1 X128.210 Y33.710 F10800.000
G1 F1200
G1 X230.340 Y33.710 E3.20221
G1 X230.340 Y101.790 E2.13460
G1 X128.210 Y101.790 E3.20221
G1 X128.210 Y33.770 E2.13272
G1 X128.602 Y33.788 F10800.000
G1 F8640
G1 X131.501 Y33.768 E-0.76000
G1 E-0.04000 F2100.00000
G1 Z0.800 F10800.000
G1 X128.700 Y100.536
G1 Z0.200
G1 E0.80000 F2100.00000
G1 F1200
G1 X129.294 Y101.130 E0.02641
G1 X129.829 Y101.130 E0.01679
G1 X128.870 Y100.171 E0.04261
G1 X128.870 Y99.637 E0.01679
G1 X130.363 Y101.130 E0.06635
G1 X130.898 Y101.130 E0.01679
G1 X128.870 Y99.102 E0.09010
G1 X128.870 Y98.568 E0.01679
G1 X131.432 Y101.130 E0.11384
G1 X131.966 Y101.130 E0.01679
G1 X128.870 Y98.034 E0.13758
G1 X128.870 Y97.499 E0.01679
G1 X132.501 Y101.130 E0.16133
G1 X133.035 Y101.130 E0.01679
G1 X128.870 Y96.965 E0.18507
G1 X128.870 Y96.431 E0.01679
G1 X133.569 Y101.130 E0.20881
G1 X134.104 Y101.130 E0.01679
G1 X128.870 Y95.896 E0.23255
G1 X128.870 Y95.362 E0.01679
G1 X134.638 Y101.130 E0.25630
G1 X135.172 Y101.130 E0.01679
G1 X128.870 Y94.828 E0.28004
G1 X128.870 Y94.293 E0.01679
G1 X135.707 Y101.130 E0.30378
G1 X136.241 Y101.130 E0.01679
G1 X128.870 Y93.759 E0.32753
G1 X128.870 Y93.224 E0.01679
G1 X136.776 Y101.130 E0.35127
G1 X137.310 Y101.130 E0.01679
G1 X128.870 Y92.690 E0.37501
G1 X128.870 Y92.156 E0.01679
G1 X137.844 Y101.130 E0.39876
G1 X138.379 Y101.130 E0.01679
G1 X128.870 Y91.621 E0.42250
G1 X128.870 Y91.087 E0.01679
G1 X138.913 Y101.130 E0.44624
G1 X139.447 Y101.130 E0.01679
G1 X128.870 Y90.553 E0.46999
G1 X128.870 Y90.018 E0.01679
G1 X139.982 Y101.130 E0.49373
G1 X140.516 Y101.130 E0.01679
G1 X128.870 Y89.484 E0.51747
G1 X128.870 Y88.950 E0.01679
G1 X141.050 Y101.130 E0.54121
G1 X141.585 Y101.130 E0.01679
G1 X128.870 Y88.415 E0.56496
G1 X128.870 Y87.881 E0.01679
G1 X142.119 Y101.130 E0.58870
G1 X142.654 Y101.130 E0.01679
G1 X128.870 Y87.346 E0.61244
G1 X128.870 Y86.812 E0.01679
G1 X143.188 Y101.130 E0.63619
G1 X143.722 Y101.130 E0.01679
G1 X128.870 Y86.278 E0.65993
G1 X128.870 Y85.743 E0.01679
G1 X144.257 Y101.130 E0.68367
G1 X144.791 Y101.130 E0.01679
G1 X128.870 Y85.209 E0.70742
G1 X128.870 Y84.675 E0.01679
G1 X145.325 Y101.130 E0.73116
G1 X145.860 Y101.130 E0.01679
G1 X128.870 Y84.140 E0.75490
G1 X128.870 Y83.606 E0.01679
G1 X146.394 Y101.130 E0.77865
G1 X146.928 Y101.130 E0.01679
G1 X128.870 Y83.072 E0.80239
G1 X128.870 Y82.537 E0.01679
G1 X147.463 Y101.130 E0.82613
G1 X147.997 Y101.130 E0.01679
G1 X128.870 Y82.003 E0.84988
G1 X128.870 Y81.468 E0.01679
G1 X148.532 Y101.130 E0.87362
G1 X149.066 Y101.130 E0.01679
G1 X128.870 Y80.934 E0.89736
G1 X128.870 Y80.400 E0.01679
G1 X149.600 Y101.130 E0.92110
G1 X150.135 Y101.130 E0.01679
G1 X128.870 Y79.865 E0.94485
G1 X128.870 Y79.331 E0.01679
G1 X150.669 Y101.130 E0.96859
G1 X151.203 Y101.130 E0.01679
G1 X128.870 Y78.797 E0.99233
G1 X128.870 Y78.262 E0.01679
G1 X151.738 Y101.130 E1.01608
G1 X152.272 Y101.130 E0.01679
G1 X128.870 Y77.728 E1.03982
G1 X128.870 Y77.194 E0.01679
G1 X152.806 Y101.130 E1.06356
G1 X153.341 Y101.130 E0.01679
G1 X128.870 Y76.659 E1.08731
G1 X128.870 Y76.125 E0.01679
G1 X153.875 Y101.130 E1.11105
M73 P0 R397
G1 X154.410 Y101.130 E0.01679
G1 X128.870 Y75.590 E1.13479
G1 X128.870 Y75.056 E0.01679
G1 X154.944 Y101.130 E1.15854
G1 X155.478 Y101.130 E0.01679
G1 X128.870 Y74.522 E1.18228
G1 X128.870 Y73.987 E0.01679
G1 X156.013 Y101.130 E1.20602
G1 X156.547 Y101.130 E0.01679
G1 X128.870 Y73.453 E1.22976
G1 X128.870 Y72.919 E0.01679
G1 X157.081 Y101.130 E1.25351
G1 X157.616 Y101.130 E0.01679
G1 X128.870 Y72.384 E1.27725
G1 X128.870 Y71.850 E0.01679
G1 X158.150 Y101.130 E1.30099
G1 X158.684 Y101.130 E0.01679
G1 X128.870 Y71.316 E1.32474
G1 X128.870 Y70.781 E0.01679
G1 X159.219 Y101.130 E1.34848
G1 X159.753 Y101.130 E0.01679
G1 X128.870 Y70.247 E1.37222
G1 X128.870 Y69.712 E0.01679
G1 X160.288 Y101.130 E1.39597
G1 X160.822 Y101.130 E0.01679
G1 X128.870 Y69.178 E1.41971
G1 X128.870 Y68.644 E0.01679
G1 X161.356 Y101.130 E1.44345
G1 X161.891 Y101.130 E0.01679
G1 X128.870 Y68.109 E1.46720
G1 X128.870 Y67.575 E0.01679
G1 X162.425 Y101.130 E1.49094
G1 X162.959 Y101.130 E0.01679
G1 X128.870 Y67.041 E1.51468
G1 X128.870 Y66.506 E0.01679
G1 X163.494 Y101.130 E1.53843
G1 X164.028 Y101.130 E0.01679
G1 X128.870 Y65.972 E1.56217
G1 X128.870 Y65.438 E0.01679
G1 X164.562 Y101.130 E1.58591
G1 X165.097 Y101.130 E0.01679
G1 X128.870 Y64.903 E1.60965
G1 X128.870 Y64.369 E0.01679
G1 X165.631 Y101.130 E1.63340
G1 X166.166 Y101.130 E0.01679
G1 X128.870 Y63.834 E1.65714
G1 X128.870 Y63.300 E0.01679
G1 X166.700 Y101.130 E1.68088
G1 X167.234 Y101.130 E0.01679
G1 X128.870 Y62.766 E1.70463
G1 X128.870 Y62.231 E0.01679
G1 X167.769 Y101.130 E1.72837
M73 P0 R396
G1 X168.303 Y101.130 E0.01679
G1 X128.870 Y61.697 E1.75211
G1 X128.870 Y61.163 E0.01679
G1 X168.837 Y101.130 E1.77586
G1 X169.372 Y101.130 E0.01679
G1 X128.870 Y60.628 E1.79960
G1 X128.870 Y60.094 E0.01679
G1 X169.906 Y101.130 E1.82334
G1 X170.440 Y101.130 E0.01679
G1 X128.870 Y59.560 E1.84709
G1 X128.870 Y59.025 E0.01679
G1 X170.975 Y101.130 E1.87083
G1 X171.509 Y101.130 E0.01679
G1 X128.870 Y58.491 E1.89457
G1 X128.870 Y57.956 E0.01679
G1 X172.044 Y101.130 E1.91831
G1 X172.578 Y101.130 E0.01679
G1 X128.870 Y57.422 E1.94206
G1 X128.870 Y56.888 E0.01679
G1 X173.112 Y101.130 E1.96580
G1 X173.647 Y101.130 E0.01679
G1 X128.870 Y56.353 E1.98954
G1 X128.870 Y55.819 E0.01679
G1 X174.181 Y101.130 E2.01329
G1 X174.715 Y101.130 E0.01679
G1 X128.870 Y55.285 E2.03703
G1 X128.870 Y54.750 E0.01679
G1 X175.250 Y101.130 E2.06077
G1 X175.784 Y101.130 E0.01679
G1 X128.870 Y54.216 E2.08452
G1 X128.870 Y53.682 E0.01679
G1 X176.318 Y101.130 E2.10826
G1 X176.853 Y101.130 E0.01679
G1 X128.870 Y53.147 E2.13200
G1 X128.870 Y52.613 E0.01679
G1 X177.387 Y101.130 E2.15575
G1 X177.922 Y101.130 E0.01679
G1 X128.870 Y52.078 E2.17949
M73 P1 R395
G1 X128.870 Y51.544 E0.01679
G1 X178.456 Y101.130 E2.20323
G1 X178.990 Y101.130 E0.01679
G1 X128.870 Y51.010 E2.22698
G1 X128.870 Y50.475 E0.01679
G1 X179.525 Y101.130 E2.25072
G1 X180.059 Y101.130 E0.01679
G1 X128.870 Y49.941 E2.27446
G1 X128.870 Y49.407 E0.01679
G1 X180.593 Y101.130 E2.29820
G1 X181.128 Y101.130 E0.01679
G1 X128.870 Y48.872 E2.32195
G1 X128.870 Y48.338 E0.01679
G1 X181.662 Y101.130 E2.34569
G1 X182.196 Y101.130 E0.01679
G1 X128.870 Y47.804 E2.36943
G1 X128.870 Y47.269 E0.01679
G1 X182.731 Y101.130 E2.39318
G1 X183.265 Y101.130 E0.01679
G1 X128.870 Y46.735 E2.41692
G1 X128.870 Y46.200 E0.01679
G1 X183.800 Y101.130 E2.44066
G1 X184.334 Y101.130 E0.01679
G1 X128.870 Y45.666 E2.46441
G1 X128.870 Y45.132 E0.01679
G1 X184.868 Y101.130 E2.48815
G1 X185.403 Y101.130 E0.01679
G1 X128.870 Y44.597 E2.51189
G1 X128.870 Y44.063 E0.01679
G1 X185.937 Y101.130 E2.53564
G1 X186.471 Y101.130 E0.01679
G1 X128.870 Y43.529 E2.55938
M73 P1 R394
G1 X128.870 Y42.994 E0.01679
G1 X187.006 Y101.130 E2.58312
G1 X187.540 Y101.130 E0.01679
G1 X128.870 Y42.460 E2.60686
G1 X128.870 Y41.926 E0.01679
G1 X188.074 Y101.130 E2.63061
G1 X188.609 Y101.130 E0.01679
G1 X128.870 Y41.391 E2.65435
G1 X128.870 Y40.857 E0.01679
G1 X189.143 Y101.130 E2.67809
G1 X189.678 Y101.130 E0.01679
G1 X128.870 Y40.322 E2.70184
G1 X128.870 Y39.788 E0.01679
G1 X190.212 Y101.130 E2.72558
G1 X190.746 Y101.130 E0.01679
G1 X128.870 Y39.254 E2.74932
G1 X128.870 Y38.719 E0.01679
G1 X191.281 Y101.130 E2.77307
G1 X191.815 Y101.130 E0.01679
G1 X128.870 Y38.185 E2.79681
G1 X128.870 Y37.651 E0.01679
G1 X192.349 Y101.130 E2.82055
G1 X192.884 Y101.130 E0.01679
G1 X128.870 Y37.116 E2.84430
G1 X128.870 Y36.582 E0.01679
G1 X193.418 Y101.130 E2.86804
G1 X193.952 Y101.130 E0.01679
G1 X128.870 Y36.048 E2.89178
M73 P1 R393
G1 X128.870 Y35.513 E0.01679
G1 X194.487 Y101.130 E2.91553
G1 X195.021 Y101.130 E0.01679
G1 X128.870 Y34.979 E2.93927
G1 X128.870 Y34.444 E0.01679
G1 X195.556 Y101.130 E2.96301
G1 X196.090 Y101.130 E0.01679
G1 X129.330 Y34.370 E2.96633
G1 X129.864 Y34.370 E0.01679
G1 X196.624 Y101.130 E2.96633
G1 X197.159 Y101.130 E0.01679
G1 X130.398 Y34.370 E2.96633
G1 X130.933 Y34.370 E0.01679
G1 X197.693 Y101.130 E2.96633
G1 X198.227 Y101.130 E0.01679
G1 X131.467 Y34.370 E2.96633
G1 X132.001 Y34.370 E0.01679
G1 X198.762 Y101.130 E2.96633
G1 X199.296 Y101.130 E0.01679
G1 X132.536 Y34.370 E2.96633
G1 X133.070 Y34.370 E0.01679
G1 X199.830 Y101.130 E2.96633
G1 X200.365 Y101.130 E0.01679
G1 X133.605 Y34.370 E2.96633
G1 X134.139 Y34.370 E0.01679
G1 X201.069 Y101.300 E2.97387
M73 P1 R392
G1 F8640
G1 X198.741 Y98.972 E-0.76000
G1 E-0.04000 F2100.00000
G1 Z0.800 F10800.000
G1 X224.046 Y101.300
G1 Z0.200
G1 E0.80000 F2100.00000
G1 F1200
G1 X185.145 Y62.398 E1.72850
G1 X185.145 Y62.933 E0.01679
G1 X223.342 Y101.130 E1.69721
G1 X222.808 Y101.130 E0.01679
G1 X185.145 Y63.467 E1.67347
G1 X185.145 Y64.001 E0.01679
G1 X222.274 Y101.130 E1.64973
G1 X221.739 Y101.130 E0.01679
G1 X185.145 Y64.536 E1.62598
G1 X185.145 Y65.070 E0.01679
G1 X221.205 Y101.130 E1.60224
G1 X220.671 Y101.130 E0.01679
G1 X185.145 Y65.604 E1.57850
G1 X185.145 Y66.139 E0.01679
G1 X220.136 Y101.130 E1.55476
G1 X219.602 Y101.130 E0.01679
G1 X185.145 Y66.673 E1.53101
G1 X185.145 Y67.207 E0.01679
G1 X219.068 Y101.130 E1.50727
G1 X218.533 Y101.130 E0.01679
G1 X185.145 Y67.742 E1.48353
G1 X185.145 Y68.276 E0.01679
G1 X217.999 Y101.130 E1.45978
G1 X217.464 Y101.130 E0.01679
G1 X185.145 Y68.811 E1.43604
G1 X185.145 Y69.345 E0.01679
G1 X216.930 Y101.130 E1.41230
G1 X216.396 Y101.130 E0.01679
G1 X185.145 Y69.879 E1.38855
G1 X185.145 Y70.414 E0.01679
G1 X215.861 Y101.130 E1.36481
G1 X215.327 Y101.130 E0.01679
G1 X185.145 Y70.948 E1.34107
G1 X185.145 Y71.482 E0.01679
G1 X214.793 Y101.130 E1.31732
G1 X214.258 Y101.130 E0.01679
G1 X185.145 Y72.017 E1.29358
G1 X185.145 Y72.551 E0.01679
G1 X213.724 Y101.130 E1.26984
G1 X213.190 Y101.130 E0.01679
G1 X185.145 Y73.085 E1.24609
G1 X185.145 Y73.620 E0.01679
G1 X212.655 Y101.130 E1.22235
G1 X212.121 Y101.130 E0.01679
G1 X184.611 Y73.620 E1.22235
G1 X184.076 Y73.620 E0.01679
G1 X211.586 Y101.130 E1.22235
G1 X211.052 Y101.130 E0.01679
G1 X183.542 Y73.620 E1.22235
G1 X183.007 Y73.620 E0.01679
G1 X210.518 Y101.130 E1.22235
M73 P2 R391
G1 X209.983 Y101.130 E0.01679
G1 X182.473 Y73.620 E1.22235
G1 X181.939 Y73.620 E0.01679
G1 X209.449 Y101.130 E1.22235
G1 X208.915 Y101.130 E0.01679
G1 X181.404 Y73.620 E1.22235
G1 X180.870 Y73.620 E0.01679
G1 X208.380 Y101.130 E1.22235
G1 X207.846 Y101.130 E0.01679
G1 X180.336 Y73.620 E1.22235
G1 X179.801 Y73.620 E0.01679
G1 X207.312 Y101.130 E1.22235
G1 X206.777 Y101.130 E0.01679
G1 X179.267 Y73.620 E1.22235
G1 X178.733 Y73.620 E0.01679
G1 X206.243 Y101.130 E1.22235
G1 X205.708 Y101.130 E0.01679
G1 X178.198 Y73.620 E1.22235
G1 X177.664 Y73.620 E0.01679
G1 X205.174 Y101.130 E1.22235
G1 X204.640 Y101.130 E0.01679
G1 X177.129 Y73.620 E1.22235
G1 X176.595 Y73.620 E0.01679
G1 X204.105 Y101.130 E1.22235
G1 X203.571 Y101.130 E0.01679
G1 X176.061 Y73.620 E1.22235
G1 X175.526 Y73.620 E0.01679
G1 X203.037 Y101.130 E1.22235
G1 X202.502 Y101.130 E0.01679
G1 X174.992 Y73.620 E1.22235
G1 X174.458 Y73.620 E0.01679
G1 X201.968 Y101.130 E1.22235
G1 X201.434 Y101.130 E0.01679
G1 X173.923 Y73.620 E1.22235
G1 X173.405 Y73.620 E0.01628
G1 X173.405 Y73.102 E0.01628
G1 X134.673 Y34.370 E1.72095
G1 X135.208 Y34.370 E0.01679
G1 X173.405 Y72.567 E1.69721
G1 X173.405 Y72.033 E0.01679
G1 X135.742 Y34.370 E1.67347
G1 X136.276 Y34.370 E0.01679
G1 X173.405 Y71.499 E1.64972
G1 X173.405 Y70.964 E0.01679
G1 X136.811 Y34.370 E1.62598
G1 X137.345 Y34.370 E0.01679
G1 X173.405 Y70.430 E1.60224
G1 X173.405 Y69.896 E0.01679
G1 X137.879 Y34.370 E1.57849
G1 X138.414 Y34.370 E0.01679
G1 X173.405 Y69.361 E1.55475
G1 X173.405 Y68.827 E0.01679
G1 X138.948 Y34.370 E1.53101
G1 X139.483 Y34.370 E0.01679
G1 X173.405 Y68.292 E1.50727
G1 X173.405 Y67.758 E0.01679
G1 X140.017 Y34.370 E1.48352
M73 P2 R390
G1 X140.551 Y34.370 E0.01679
G1 X173.405 Y67.224 E1.45978
G1 X173.405 Y66.689 E0.01679
G1 X141.086 Y34.370 E1.43604
G1 X141.620 Y34.370 E0.01679
G1 X173.405 Y66.155 E1.41229
G1 X173.405 Y65.621 E0.01679
G1 X142.154 Y34.370 E1.38855
G1 X142.689 Y34.370 E0.01679
G1 X173.405 Y65.086 E1.36481
G1 X173.405 Y64.552 E0.01679
G1 X143.223 Y34.370 E1.34106
G1 X143.757 Y34.370 E0.01679
G1 X173.405 Y64.018 E1.31732
G1 X173.405 Y63.483 E0.01679
G1 X144.292 Y34.370 E1.29358
G1 X144.826 Y34.370 E0.01679
G1 X173.405 Y62.949 E1.26983
G1 X173.405 Y62.414 E0.01679
G1 X145.361 Y34.370 E1.24609
G1 X145.895 Y34.370 E0.01679
G1 X173.405 Y61.880 E1.22235
G1 X173.940 Y61.880 E0.01679
G1 X146.429 Y34.370 E1.22235
G1 X146.964 Y34.370 E0.01679
G1 X174.474 Y61.880 E1.22235
G1 X175.008 Y61.880 E0.01679
G1 X147.498 Y34.370 E1.22235
G1 X148.032 Y34.370 E0.01679
G1 X175.543 Y61.880 E1.22235
G1 X176.077 Y61.880 E0.01679
G1 X148.567 Y34.370 E1.22235
G1 X149.101 Y34.370 E0.01679
G1 X176.611 Y61.880 E1.22235
G1 X177.146 Y61.880 E0.01679
G1 X149.635 Y34.370 E1.22235
G1 X150.170 Y34.370 E0.01679
G1 X177.680 Y61.880 E1.22235
G1 X178.214 Y61.880 E0.01679
G1 X150.704 Y34.370 E1.22235
G1 X151.239 Y34.370 E0.01679
G1 X178.749 Y61.880 E1.22235
G1 X179.283 Y61.880 E0.01679
G1 X151.773 Y34.370 E1.22235
G1 X152.307 Y34.370 E0.01679
